icons/heart_organ.svg

<svg width="48" height="48" viewBox="0 0 48 48" fill="none" xmlns="http://www.w3.org/2000/svg">
<path d="M14.0267 19.5583L14.6893 20.3073L14.0267 19.5583ZM35.7931 18.6831L35.1306 19.4321L35.7931 18.6831ZM18.409 13.5218L18.9743 14.3467C19.2034 14.1896 19.3569 13.9444 19.398 13.6697C19.4391 13.395 19.364 13.1155 19.1908 12.8984L18.409 13.5218ZM16 10.5007L15.461 9.65838C15.2224 9.81105 15.0598 10.0578 15.0135 10.3372C14.9671 10.6167 15.0415 10.9027 15.2181 11.1242L16 10.5007ZM19.3726 8.34278L20.1544 7.71934C19.8351 7.31893 19.265 7.22444 18.8336 7.50045L19.3726 8.34278ZM21.7815 11.3639L20.9997 11.9873C21.2881 12.3491 21.787 12.4657 22.2059 12.2694L21.7815 11.3639ZM24.544 10.0691L24.9684 10.9746C25.3196 10.81 25.544 10.457 25.544 10.0691H24.544ZM24.544 7.00004L24.5439 6.00004C23.9917 6.00005 23.544 6.44776 23.544 7.00004H24.544ZM28.848 7H29.848C29.848 6.73478 29.7426 6.48043 29.5551 6.29289C29.3675 6.10535 29.1132 6 28.848 6L28.848 7ZM28.848 10.0691H27.848C27.848 10.4346 28.0474 10.7709 28.368 10.9464L28.848 10.0691ZM13 20.0294L12.1377 20.5357C12.2769 20.7729 12.5077 20.9422 12.7757 21.0039C13.0437 21.0656 13.3252 21.0142 13.5542 20.8618L13 20.0294ZM9 17.3626L8.01747 17.1765C7.96719 17.442 8.02645 17.7165 8.18177 17.9375C8.3371 18.1586 8.57526 18.3074 8.84204 18.3501L9 17.3626ZM9.89552 12.6351L10.1778 11.6758C9.90691 11.5961 9.61491 11.6346 9.37395 11.7819C9.133 11.9292 8.96556 12.1715 8.913 12.449L9.89552 12.6351ZM17 18.0323L17.3709 18.9609C17.7952 18.7915 18.0506 18.3561 17.9916 17.9031L17 18.0323ZM31.5843 17.2373L32.0044 18.1448L31.5843 17.2373ZM23.1557 19.4046L22.2591 18.9617L21.7315 20.0298L22.8749 20.3643L23.1557 19.4046ZM29.2526 13.1848L28.8325 12.2773L29.2526 13.1848ZM38.6701 11.7957L39.6694 11.8325L39.7063 10.8309L38.7046 10.7963L38.6701 11.7957ZM38.4952 16.5474L38.4607 17.5468L39.4578 17.5812L39.4945 16.5842L38.4952 16.5474ZM28.2026 20.3339L27.3562 19.8014L28.2026 20.3339ZM26.8627 20.7778L26.4711 21.6979L26.8627 20.7778ZM25.733 30.2908L26.6507 29.8937V29.8937L25.733 30.2908ZM25.4597 26.2981L26.423 26.5664L25.4597 26.2981ZM13.3641 18.8093C11.3593 20.5827 10.6081 23.0052 10.693 25.5267C10.7771 28.0283 11.6792 30.6744 13.0325 33.0686C14.3886 35.4677 16.2325 37.676 18.2752 39.295C20.3038 40.9028 22.6208 42 24.9099 42V40C23.2414 40 21.3536 39.1828 19.5175 37.7276C17.6954 36.2834 16.0146 34.2799 14.7736 32.0844C13.5298 29.8839 12.7623 27.5524 12.6918 25.4594C12.6221 23.3862 13.2313 21.597 14.6893 20.3073L13.3641 18.8093ZM24.9099 42C27.1932 42 29.5696 40.9085 31.6739 39.2926C33.7942 37.6645 35.7358 35.4313 37.159 32.9733C39.9556 28.1435 40.9764 21.9328 36.4557 17.9341L35.1306 19.4321C38.5405 22.4483 38.0772 27.3962 35.4282 31.9711C34.1287 34.2155 32.3573 36.2462 30.4558 37.7064C28.5383 39.1788 26.5842 40 24.9099 40V42ZM36.4557 17.9341C35.8817 17.4264 35.4344 17.1625 34.9457 16.9155C34.4743 16.6772 34.0378 16.487 33.3329 16.0714L32.317 17.7941C33.0963 18.2537 33.6492 18.5011 34.0434 18.7004C34.4204 18.8909 34.7151 19.0646 35.1306 19.4321L36.4557 17.9341ZM23.8112 18.5495C22.3214 18.0618 20.3892 17.5855 18.5283 17.4789C16.7142 17.3749 14.7228 17.6074 13.3641 18.8093L14.6893 20.3073C15.4344 19.6482 16.738 19.3795 18.4138 19.4756C20.0427 19.569 21.7954 19.994 23.1888 20.4502L23.8112 18.5495ZM19.1908 12.8984L16.7819 9.87726L15.2181 11.1242L17.6271 14.1453L19.1908 12.8984ZM16.539 11.343L19.9115 9.18511L18.8336 7.50045L15.461 9.65838L16.539 11.343ZM18.5907 8.96623L20.9997 11.9873L22.5634 10.7404L20.1544 7.71934L18.5907 8.96623ZM22.2059 12.2694L24.9684 10.9746L24.1196 9.16365L21.3571 10.4584L22.2059 12.2694ZM25.544 10.0691V7.00004H23.544V10.0691H25.544ZM24.544 8.00004L28.848 8L28.848 6L24.5439 6.00004L24.544 8.00004ZM27.848 7V10.0691H29.848V7H27.848ZM28.848 10.0691C28.368 10.9464 28.3678 10.9463 28.3676 10.9461C28.3675 10.9461 28.3673 10.946 28.3672 10.9459C28.367 10.9458 28.3667 10.9457 28.3665 10.9456C28.3661 10.9453 28.3657 10.9451 28.3655 10.945C28.3649 10.9446 28.3646 10.9445 28.3646 10.9445C28.3645 10.9444 28.3656 10.945 28.3676 10.9462C28.3718 10.9486 28.3802 10.9534 28.3923 10.9606C28.4167 10.975 28.4563 10.9989 28.5085 11.0324C28.6131 11.0996 28.767 11.2042 28.9491 11.3457C29.3161 11.6308 29.7836 12.0545 30.1978 12.6111L31.8022 11.417C31.2528 10.6788 30.6443 10.13 30.1761 9.76632C29.9408 9.58348 29.7373 9.44459 29.5889 9.34937C29.5147 9.30169 29.4539 9.26476 29.4095 9.23854C29.3873 9.22543 29.3692 9.21498 29.3555 9.2072C29.3486 9.2033 29.3429 9.20007 29.3383 9.19751C29.336 9.19622 29.334 9.1951 29.3322 9.19415C29.3314 9.19368 29.3306 9.19324 29.3299 9.19285C29.3295 9.19265 29.3292 9.19247 29.3289 9.19229C29.3287 9.1922 29.3285 9.19208 29.3284 9.19203C29.3282 9.19191 29.3279 9.19179 28.848 10.0691ZM17.4628 16.6588C17.6853 15.8659 18.0778 15.276 18.4152 14.8842C18.5836 14.6888 18.7356 14.5458 18.8404 14.4553C18.8927 14.4101 18.9327 14.3785 18.9565 14.3603C18.9684 14.3512 18.9762 14.3455 18.9793 14.3432C18.9809 14.3421 18.9813 14.3418 18.9805 14.3424C18.9801 14.3427 18.9794 14.3432 18.9783 14.3439C18.9778 14.3442 18.9772 14.3447 18.9766 14.3451C18.9762 14.3453 18.9759 14.3456 18.9755 14.3459C18.9753 14.346 18.975 14.3462 18.9749 14.3462C18.9746 14.3465 18.9743 14.3467 18.409 13.5218C17.8436 12.6969 17.8433 12.6972 17.843 12.6974C17.8429 12.6975 17.8426 12.6977 17.8423 12.6978C17.8419 12.6982 17.8414 12.6985 17.8409 12.6988C17.8399 12.6995 17.8388 12.7003 17.8376 12.7011C17.8353 12.7027 17.8326 12.7046 17.8296 12.7067C17.8236 12.711 17.8162 12.7162 17.8076 12.7224C17.7905 12.7348 17.7684 12.7511 17.7418 12.7714C17.6887 12.812 17.6176 12.8687 17.5333 12.9415C17.3648 13.087 17.1411 13.2989 16.8999 13.579C16.4182 14.1382 15.8562 14.9818 15.5372 16.1185L17.4628 16.6588ZM13 20.0294C13.8623 19.5231 13.8621 19.5228 13.8619 19.5224C13.8619 19.5223 13.8616 19.5219 13.8615 19.5217C13.8612 19.5211 13.8608 19.5206 13.8605 19.52C13.8598 19.5188 13.859 19.5175 13.8581 19.516C13.8564 19.5131 13.8543 19.5096 13.8519 19.5056C13.8471 19.4976 13.8409 19.4875 13.8333 19.4753C13.8182 19.4511 13.7976 19.4187 13.7715 19.3794C13.7193 19.3008 13.6449 19.1938 13.5479 19.0667C13.3545 18.8131 13.068 18.4751 12.6857 18.1223C11.9234 17.4188 10.7502 16.6299 9.15796 16.3752L8.84204 18.3501C9.93635 18.5251 10.7631 19.0696 11.3292 19.5921C11.6112 19.8522 11.8209 20.1003 11.9577 20.2797C12.0259 20.369 12.075 20.4401 12.1052 20.4855C12.1202 20.5082 12.1305 20.5244 12.1359 20.5331C12.1386 20.5374 12.1401 20.5399 12.1404 20.5404C12.1406 20.5406 12.1404 20.5404 12.1399 20.5396C12.1397 20.5392 12.1394 20.5387 12.139 20.5381C12.1388 20.5378 12.1386 20.5374 12.1384 20.537C12.1383 20.5368 12.1381 20.5365 12.138 20.5364C12.1378 20.5361 12.1377 20.5357 13 20.0294ZM9.98253 17.5487L10.8781 12.8212L8.913 12.449L8.01747 17.1765L9.98253 17.5487ZM9.89552 12.6351C9.61321 13.5944 9.61302 13.5944 9.61286 13.5943C9.61284 13.5943 9.6127 13.5943 9.61266 13.5943C9.61257 13.5943 9.61259 13.5943 9.6127 13.5943C9.61293 13.5944 9.61355 13.5945 9.61456 13.5949C9.61659 13.5955 9.62018 13.5965 9.62528 13.5981C9.63548 13.6012 9.65171 13.6061 9.67359 13.6129C9.71737 13.6265 9.78367 13.6475 9.8694 13.6758C10.041 13.7323 10.2896 13.8177 10.5906 13.9309C11.195 14.1582 11.9983 14.4932 12.8084 14.9263C13.6246 15.3626 14.4098 15.8785 15.0044 16.4559C15.6033 17.0375 15.9365 17.6098 16.0084 18.1614L17.9916 17.9031C17.8396 16.7356 17.1728 15.7737 16.3977 15.0211C15.6182 14.2641 14.6552 13.6457 13.7513 13.1625C12.8412 12.676 11.9524 12.3064 11.2947 12.059C10.9646 11.9348 10.6897 11.8403 10.4955 11.7763C10.3983 11.7442 10.3211 11.7198 10.2672 11.703C10.2402 11.6946 10.219 11.6882 10.204 11.6836C10.1965 11.6814 10.1905 11.6796 10.1861 11.6783C10.1839 11.6776 10.1822 11.6771 10.1808 11.6767C10.1801 11.6765 10.1795 11.6763 10.179 11.6761C10.1788 11.6761 10.1785 11.676 10.1783 11.676C10.1781 11.6759 10.1778 11.6758 9.89552 12.6351ZM16.6291 17.1036C15.3369 17.6197 14.301 18.1367 13.5842 18.5271C13.2256 18.7225 12.9462 18.8864 12.754 19.0033C12.6579 19.0617 12.5835 19.1084 12.5318 19.1413C12.506 19.1578 12.4858 19.1708 12.4715 19.1802C12.4643 19.1849 12.4585 19.1886 12.4543 19.1914C12.4521 19.1929 12.4504 19.194 12.449 19.195C12.4482 19.1954 12.4476 19.1958 12.4471 19.1962C12.4469 19.1963 12.4466 19.1965 12.4464 19.1966C12.4463 19.1967 12.4462 19.1968 12.4461 19.1968C12.446 19.1969 12.4458 19.197 13 20.0294C13.5542 20.8618 13.554 20.8619 13.5539 20.862C13.5539 20.862 13.5538 20.8621 13.5537 20.8621C13.5536 20.8622 13.5535 20.8623 13.5534 20.8623C13.5533 20.8624 13.5532 20.8625 13.5532 20.8625C13.5533 20.8624 13.5537 20.8621 13.5545 20.8616C13.556 20.8606 13.559 20.8586 13.5634 20.8558C13.5723 20.85 13.5868 20.8406 13.6068 20.8278C13.647 20.8023 13.7093 20.7631 13.7928 20.7123C13.96 20.6107 14.2119 20.4626 14.5408 20.2835C15.199 19.925 16.1631 19.4434 17.3709 18.9609L16.6291 17.1036ZM29.0491 20.8664C29.963 19.4137 30.9299 18.6422 32.0044 18.1448L31.1643 16.3298C29.7234 16.9968 28.4666 18.0364 27.3562 19.8014L29.0491 20.8664ZM22.8749 20.3643C24.1156 20.7273 25.5625 21.3112 26.4711 21.6979L27.2543 19.8577C26.3304 19.4644 24.7948 18.8422 23.4365 18.4448L22.8749 20.3643ZM28.8325 12.2773C25.9062 13.6318 23.9202 15.5987 22.2591 18.9617L24.0523 19.8474C25.5342 16.8474 27.2056 15.2342 29.6727 14.0923L28.8325 12.2773ZM38.7046 10.7963C34.9519 10.6668 31.653 10.9718 28.8325 12.2773L29.6727 14.0923C32.0695 12.9829 34.9946 12.6695 38.6356 12.7951L38.7046 10.7963ZM39.4945 16.5842L39.6694 11.8325L37.6708 11.7589L37.4959 16.5106L39.4945 16.5842ZM32.0044 18.1448C33.3019 17.5443 35.018 17.428 38.4607 17.5468L38.5297 15.548C35.15 15.4314 32.9582 15.4995 31.1643 16.3298L32.0044 18.1448ZM27.3562 19.8014C27.3392 19.8285 27.3138 19.847 27.2892 19.8553C27.2667 19.8629 27.2569 19.8588 27.2543 19.8577L26.4711 21.6979C27.4458 22.1128 28.5248 21.6996 29.0491 20.8664L27.3562 19.8014ZM24.8152 30.6879L25.2277 31.6413L27.0633 30.8471L26.6507 29.8937L24.8152 30.6879ZM25.1478 31.3123L25.4278 35.4155L27.4231 35.2794L27.1432 31.1761L25.1478 31.3123ZM26.2608 32.2376L30.5168 31.7435L30.2862 29.7568L26.0302 30.2509L26.2608 32.2376ZM27.0923 20.0804L24.7638 25.1181L26.5792 25.9572L28.9077 20.9196L27.0923 20.0804ZM24.7082 25.2693L24.4964 26.0297L26.423 26.5664L26.6348 25.806L24.7082 25.2693ZM25.2595 24.6265L20.9071 26.5948L21.7312 28.4171L26.0836 26.4488L25.2595 24.6265ZM21.5484 26.5326L17.2117 25.5109L16.7531 27.4576L21.0898 28.4793L21.5484 26.5326ZM20.3892 27.1381L18.9103 30.8764L20.7701 31.6121L22.249 27.8738L20.3892 27.1381ZM26.6507 29.8937C26.1963 28.8433 26.1159 27.6689 26.423 26.5664L24.4964 26.0297C24.0664 27.5732 24.1789 29.2174 24.8152 30.6879L26.6507 29.8937Z" fill="black"/>
</svg>

<svg
  xmlns="http://www.w3.org/2000/svg"
  width="24"
  height="24"
  viewBox="0 0 24 24"
  fill="none"
  stroke="currentColor"
  stroke-width="2"
  stroke-linecap="round"
  stroke-linejoin="round"
>
  <path d="m14.027 19.558.662.75zm21.766-.875-.662.75zM18.41 13.522l.565.825a1 1 0 0 0 .217-1.449zM16 10.5l-.539-.843a1 1 0 0 0-.243 1.466zm3.373-2.158.781-.624a1 1 0 0 0-1.32-.219zm2.409 3.02-.782.624a1 1 0 0 0 1.206.282zm2.762-1.294.424.906a1 1 0 0 0 .576-.906zm0-3.069V6a1 1 0 0 0-1 1zm4.304 0h1a1 1 0 0 0-1-1zm0 3.07h-1a1 1 0 0 0 .52.876zM13 20.03l-.862.506a1 1 0 0 0 1.416.326zm-4-2.667-.983-.186a1 1 0 0 0 .825 1.173zm.896-4.728.282-.96a1 1 0 0 0-1.265.774zM17 18.032l.37.929a1 1 0 0 0 .622-1.058zm14.584-.795.42.908zm-8.428 2.168-.897-.443-.527 1.068 1.143.334zm6.097-6.22-.42-.908zm9.417-1.39 1 .037.036-1.001-1.001-.035zm-.175 4.752-.034 1 .997.034.037-.997zm-10.292 3.787-.847-.533zm-1.34.444-.392.92zm-1.13 9.513.918-.397zm-.273-3.993.963.268zM13.364 18.81c-2.005 1.774-2.756 4.196-2.671 6.718.084 2.501.986 5.147 2.34 7.542 1.356 2.399 3.2 4.607 5.242 6.226C20.304 40.903 22.621 42 24.91 42v-2c-1.669 0-3.556-.817-5.393-2.272-1.822-1.445-3.502-3.448-4.743-5.644-1.244-2.2-2.012-4.532-2.082-6.625-.07-2.073.54-3.862 1.997-5.152zM24.91 42c2.283 0 4.66-1.092 6.764-2.707 2.12-1.629 4.062-3.862 5.485-6.32 2.797-4.83 3.817-11.04-.703-15.039l-1.325 1.498c3.41 3.016 2.946 7.964.297 12.54-1.3 2.243-3.07 4.274-4.972 5.734C28.538 39.18 26.584 40 24.91 40zm11.546-24.066a6.6 6.6 0 0 0-1.51-1.018c-.472-.239-.908-.429-1.613-.845l-1.016 1.723c.78.46 1.332.707 1.726.906.377.19.672.365 1.088.732zm-12.645.615c-1.49-.487-3.422-.963-5.283-1.07-1.814-.104-3.805.128-5.164 1.33l1.325 1.498c.745-.659 2.049-.927 3.725-.831 1.629.093 3.381.518 4.775.974zm-4.62-5.65-2.41-3.022-1.563 1.247 2.41 3.021zm-2.652-1.556 3.372-2.158L18.835 7.5 15.46 9.658zm2.052-2.377L21 11.987l1.563-1.247-2.409-3.02zm3.615 3.303 2.762-1.294-.848-1.811-2.763 1.294zm3.338-2.2V7h-2v3.07zm-1-2.069h4.304V6h-4.304zm3.304-1v3.07h2V7zm1 3.07-.48.876h-.002v-.001h-.001l.003.001.024.015q.038.021.117.071a6.675 6.675 0 0 1 1.69 1.579l1.603-1.194a8.7 8.7 0 0 0-2.392-2.178l-.055-.032-.017-.01-.006-.003-.002-.001h-.001v-.001zm-11.385 6.589a4.65 4.65 0 0 1 .952-1.775 4 4 0 0 1 .541-.524l.023-.017h.002-.003l-.001.002h-.002v.001l-.566-.824-.566-.825-.002.002-.003.002-.008.006-.022.015a3 3 0 0 0-.275.22 6 6 0 0 0-.633.637 6.65 6.65 0 0 0-1.363 2.54zM13 20.029l.862-.507-.002-.002-.002-.004-.025-.04-.062-.097a6 6 0 0 0-.223-.312 7.4 7.4 0 0 0-.862-.945c-.763-.703-1.936-1.492-3.528-1.747l-.316 1.975c1.094.175 1.921.72 2.487 1.242a5.4 5.4 0 0 1 .776.893l.035.055-.001-.002v-.001h-.001zm-3.017-2.48.895-4.728-1.965-.372-.896 4.728zm-.087-4.914-.283.96h.002l.01.003.049.015.195.063a18.913 18.913 0 0 1 2.939 1.25c.817.437 1.602.953 2.196 1.53.6.582.933 1.154 1.004 1.705l1.984-.258c-.152-1.167-.82-2.13-1.594-2.882-.78-.757-1.743-1.375-2.647-1.859a21 21 0 0 0-3.484-1.459l-.063-.02-.018-.005-.007-.002zm6.733 4.469a29 29 0 0 0-3.045 1.423 20 20 0 0 0-1.112.653l-.018.011-.005.004-.002.001c-.001 0-.001.001.553.833l.554.833.01-.006a6 6 0 0 1 .229-.144c.167-.101.419-.25.748-.428a27 27 0 0 1 2.83-1.323zm12.42 3.762c.914-1.452 1.88-2.224 2.955-2.721l-.84-1.815c-1.44.667-2.697 1.706-3.808 3.471zm-6.174-.502c1.24.363 2.688.947 3.596 1.334l.783-1.84c-.924-.394-2.46-1.016-3.818-1.413zm5.958-8.087c-2.927 1.355-4.913 3.322-6.574 6.685l1.793.885c1.482-3 3.154-4.613 5.62-5.755zm9.872-1.48c-3.753-.13-7.052.175-9.872 1.48l.84 1.815c2.396-1.11 5.322-1.423 8.963-1.297zm.79 5.787.174-4.751-1.998-.074-.175 4.752zm-7.49 1.56c1.297-.6 3.013-.716 6.456-.597l.069-1.999c-3.38-.117-5.572-.049-7.366.782zm-4.649 1.657a.13.13 0 0 1-.067.054c-.022.008-.032.004-.035.003l-.783 1.84c.975.415 2.054.002 2.578-.832zm-2.54 10.887.412.953 1.835-.794-.412-.953zm.332.624.28 4.104 1.995-.137-.28-4.103zm1.113.926 4.256-.494-.23-1.987-4.257.494zm.831-12.158-2.328 5.038 1.815.84 2.329-5.038zm-2.384 5.19-.212.76 1.927.536.212-.76zm.552-.643-4.353 1.968.824 1.822 4.353-1.968zm-3.712 1.906-4.336-1.022-.459 1.947 4.337 1.021zm-1.159.605-1.479 3.738 1.86.736 1.479-3.738zm6.262 2.756a5 5 0 0 1-.228-3.328l-1.927-.536a7 7 0 0 0 .32 4.658z" />
</svg>
